X:1
T:Chanson espagnole
T:à Mademoiselle Emma Calvé 
T:Cécile Chaminade
T:Chanson espagnole
T:French lyrics by Armand Lafrique
T:OpenScore (CC0)
T:OpenScore (CC0)
T:OpenScore (CC0)
T:OpenScore (CC0)
T:OpenScore (CC0)
C:Cécile Chaminade
Z:French lyrics by Armand Lafrique
Z:OpenScore (CC0)
%%score 1 { 2 | ( 3 4 ) }
L:1/8
Q:3/8=88
M:6/8
K:Eb
V:1 treble nm="Voice\nChant"
V:2 treble nm="Piano"
V:3 bass 
V:4 bass 
V:1
"^Allegro""^\n" z6 | z2 z z"^\n"!mf! B3/2 B/ | (B F2) z (F/G/) (A/G/) | %3
w: |Brille en-|\- co- re nuit * d'Es- *|
w: |Due- ño|mi- o pren- * da *|
 (3(F/G/F/) E2 z!<(! (B,/E/) (G/B/)!<)! | c c c d d3/2 d/ |{/d} B3- !breath!B!f! (D/E/) (G/B/) | %6
w: pa- * * gne! Res- * plen- *|\-dis dans la tiè- deur des|cieux, _ Quand * l'a _|
w: mi- * * a Tu _ _ _|sol que- ma mi co- ra-|zon _ Y * lo *|
 e e3/2 c/ d (d>G) | (e3 !breath!d) (B/c/) (B/c/) | d (d>B) c c3/2 F/ | %9
w: \-mour de ses feux nous *|ga- gne, Son * é- *|clair luit * dans nos grands|
w: tie- ne _ tal ren- *|di- do Que _ le *|va ma- * tan- do su|
!>(! B3-!>)!"^sans respirer" B!pp! B3/2 B/ | (B F2) z (F/G/) (A/G/) | %11
w: yeux. _ O nuit|calme, * par- * fu- *|
w: mal _ Due- ño|mi- o pren- * da *|
 (3(F/G/F/) E2 z!<(! (B,/E/) (G/B/)!<)! | c c c d d3/2 d/ |{/d} B3- !breath!B!f! (D/E/) (G/B/) | %14
w: mé- * * e, Ver- * se _|nous tes mou- ran- tes pâ-|leurs, _ Brille * en- *|
w: mi- * * a Tu _ _ _|sol que- ma mi co- ra-|zon _ Si * e- *|
 (e E2) z!p! (D/E/) (G/B/) | (d c2) z!f! (D/E/) (F/G/) | c B3/2 G/ B A3/2 F/ | E3- E z z || %18
w: co- re, nuit * ai- *|\-mé- e, Con- * vre _|nous de bai- sers et de|fleurs! _|
w: res _ in- * sen- *|\- si- ble Ven- * gar *|me sa- * brà mi pu-|ñal! _|
[K:Bb]!f! B B B B B B | (B/c/B/A/) G- G F/ G/ F/ E/ | (D3 C3 |{DC} B,3-) B,3 |!mf! B B B B B B | %23
w: Chan- tez Ma- no- las câ-|li- * * * nes, _ Re- pre- nez vos|gais re-|frains! _|Tam- bou- rins et man- do-|
w: Cuan- do co- mo u- na es-|tre- * * * lla _ Lu- ce tu mi-|\- ra- *|da _|Cuan- do vi- bra tu voz|
 (A/B/A/G/) F- !breath!F G B | (A/B/A/G/) F- F G A | (F/=E/) D2- !breath!D!p! B3/2 B/ | %26
w: \-li- * * * nes _ Fe- ront|bat- * * * tre _ nos poi-|\-tri- * nes! _ Sur les|
w: di- * vi- * na _ Es- toy|lo- * * * co _ de con-|\- ten- * to _ Pues si|
 (B/E/) B3/2 B/ (B/E/) B3/2 B/ | (B2 E) z"^cresc." c3/2 c/ | (c/F/) c3/2 c/ (c/F/) c3/2 c/ | %29
w: ro- * ses fris- son- * ne la|bri- se, A l'au-|\-ro- * re, le rê- * ve se|
w: el * cé- fi- ro * in dis-|cre- to Le van-|\- tan- do por ma- li- * cia tus|
 (c2 F) z!f![Q:3/8=78]"^allargando -   -   -   -   -   -   -   -   -   -   -   -  -" d3/2 d/ | %30
w: bri- se, Que sans|
w: fal- das En- se-|
 (d/G/) d3/2 d/ (d/G/) d3/2 d/ | (d2 G-) G!ppp! B3/2 B/ || %32
w: trè- * ve la dan- * se nous|gri- se! _ Quand la|
w: ña * el co- lor * de tus|li- gas _ Due- ño|
[K:Eb]!p![Q:1/4=132]"^a Tempo" (B F2) z (F/G/) (A/G/) | (3(F/G/F/) E2 z!<(! (B,/E/) (G/B/)!<)! | %34
w: ron- de nous * en- *|chaî- * * ne, U- * nis- *|
w: mi- o pren- * da *|mi- * * a Tu _ _ _|
 c c c d d3/2 d/ |{/d} B3- !breath!B!f! (D/E/) G/ B/ | e e3/2 c/ d (d>G) | %37
w: \-sons nos mains et nos re-|gards; _ Mal * heur à|qui bri- se- ra sa _|
w: sol que- ma mi co- ra-|zon _ Y _ lo _|tie- ne _ tal ren- *|
 (e3 !breath!d) (B/c/) B/ c/ | d d3/2 B/ c c3/2 F/ |!>(! B3-!>)!"^sans respirer" B!pp! B3/2 B/ | %40
w: chaî- ne, Pour _ nous ven-|\-ger nous a- vons nos poi-|gnards! _ Brille en-|
w: di- do Que * le _|va ma- * tan- do su|mal _ Due- ño|
 (B F2) z (F/G/) (A/G/) | (3(F/G/F/) E2 z"^cresc."!<(! (B,/E/) (G/B/)!<)! | c c c d d3/2 d/ | %43
w: co- re, nuit _ d'i- *|\-vres- * * se! A * mon *|gré trop tôt vien- dra le|
w: mi- o pren- * da *|mi- * * a Tu _ _ _|sol que- ma mi co- ra-|
{/d} (B3 !breath!B)!f! (D/E/) (G/B/) | (e E2) z!p! (D/E/) (G/B/) | %45
w: jour; _ Quand _ ton _|souf- fle me * ca- *|
w: \- zon _ Si * e- *|res _ in- * sen- *|
 (d c2) !fermata!z!f! (D/E/) F/ G/ |"^\n" (cB3/2) G/ (BA3/2) F/ | (E3 E) z z |] %48
w: \-res- se, Je _ sens en|moi _ pas- ser _ l'a-|mour! _|
w: \- si- ble Ven- * gar _|me sa- * brà mi pu-|ñal! _|
V:2
"^Allegro"!mf! z [EGB]/B,/ z z [EGB]/B,/ z | z [EGB]/B,/ z z [EGB]/B,/ z | %2
 z [DAB]/B,/ z z [DAB]/B,/ z | z [EGB]/B,/ z z!<(! [EGB]/B,/ z!<)! | z [EAB]/C/ z z [DAB]/B,/ z | %5
 z [EGB]/B,/ z!f! z [EGB]/B,/ z | z [Gce]/E/ z z [GBd]/D/ z | z [=Ace]/^F/ z z [GBd]/D/ z | %8
 z [Bdf]/F/ z z [=Aef]/F/ z |!>(! z [Bdf]/F/ z!>)!!8va(! [bb']3!8va)! | %10
!pp! z [EAB]/C/ z z [DAB]/B,/ z | z [EGB]/B,/ z z [EGB]/B,/ z | z [EAB]/C/ z z [DAB]/B,/ z | %13
 z [EGB]/B,/ z z [EGB]/B,/ z |!f! z [GBe]/!>!E/- E- E3 |!p! z [=Ace]/!>!E/- E- E3 | %16
!f! z [GBe]/E/ z z [ABd]/D/ z |!<(! z [GBe]/E/ z!<)!!8va(! !^![e'e'']3!8va)! || %18
[K:Bb]!f! z !arpeggio![B,DF][I:staff +1]!arpeggio![B,,F,][I:staff -1] !arpeggio![B,DF][I:staff +1]!arpeggio![B,,F,][I:staff -1]!arpeggio![B,DF] | %19
 x3 !arpeggio![B,DG][I:staff +1]!arpeggio![G,,D,][I:staff -1]!arpeggio![B,DG] | %20
 z [B,DF]/[I:staff +1]F,/[I:staff -1] z z [A,EF]/[I:staff +1]F,/[I:staff -1] z | %21
!ff! z [DF]/B,/ z [DF]/B,/ z [DF]/B,/ | %22
[I:staff +1] [B,,,B,,][I:staff -1]!arpeggio![B,DF][I:staff +1]!arpeggio![B,,F,][I:staff -1] !arpeggio![B,DF][I:staff +1]!arpeggio![B,,F,][I:staff -1]!arpeggio![B,DF] | %23
!f! x3 [A,DF] [G,C=E][B,CG] |[I:staff +1] (F,,/C,/ F,/[I:staff -1] A,/[CF]/A,/ z) [G,B,D][G,A,^C] | %25
!f! x2 z z!p! !>![_A,D^F]2 | [G,EG] !>![_A,D^F]2 [G,EG] !>![A,DF]2 | %27
[I:staff +1] (E,,/B,,/ E,/[I:staff -1] G,/[EG]/G,/ z)"_cresc." !>![B,=E^G]2 | %28
 [A,FA] !>![B,=E^G]2 [A,FA] !>![B,EG]2 | %29
[I:staff +1] (F,,/C,/ F,/[I:staff -1] A,/[FA]/A,/ z)!f! !>![D^Fc]2 | %30
 [DG=B] !>![D^Fc]2 [DGB] !>![DFc]2 | [=B,DG=B]2 z!p! !arpeggio![_Bdg_b]2 z || %32
[K:Eb] z [DAB]/B,/ z z [DAB]/B,/ z | z [EGB]/B,/ z z!<(! [EGB]/B,/ z!<)! | %34
 z [EAB]/C/ z z [DAB]/B,/ z | z [EGB]/B,/ z!f! z [EGB]/B,/ z |!f! z [Gce]/E/ z z [GBd]/D/ z | %37
 z [=Ace]/^F/ z z [GBd]/D/ z | z [Bdf]/F/ z z [=Aef]/F/ z | %39
!>(! z [Bdf]/F/ z!>)!!8va(! [bb']3!8va)! |!pp! z [EAB]/C/ z z [DAB]/B,/ z | %41
 z [EGB]/B,/ z"_cresc." z [EGB]/B,/ z | z [EAB]/C/ z z [DAB]/B,/ z | z [EGB]/B,/ z z [EGB]/B,/ z | %44
!f! z [GBe]/E/- E- E3 |!p! z [=Ace]/!>!E/- E- !fermata!E3 |!f! z [GBe]/E/ z z [ABd]/D/ z | %47
!<(! z [GBe]/E/ z!<)!!8va(! !^![e'e'']3!8va)! |] %48
V:3
"_col Ped." !>!E,,2 G,/B,,/ !>!E,,2 G,/B,,/ | !>!E,,2 G,/B,,/ !>!E,,2 G,/B,,/ | %2
 !>!E,,2 F,/B,,/ !>!E,,2 F,/B,,/ | !>!E,,2 G,/B,,/ !>!E,,2 G,/B,,/ | %4
 !>!E,,2 A,/C,/ !>!E,,2 F,/B,,/ | !>!E,,2 G,/B,,/ !>!E,,2 G,/B,,/ | !>!C,2 C/G,/ !>!G,,2 B,/G,/ | %7
 !>!C,2 C/=A,/ !>!G,,2 B,/G,/ | !>!F,2 D/B,/ !>!F,,2 C/F,/ | !>!B,,2 D/B,/- B,3 | %10
 !>!E,,2 F,/B,,/ !>!E,,2 F,/B,,/ | !>!E,,2 G,/B,,/ !>!E,,2 G,/B,,/ | %12
 !>!E,,2 A,/C,/ !>!E,,2 F,/B,,/ | !>!E,,2 G,/B,,/ !>!E,,2 G,/B,,/ | !>![C,,C,]2 C/G,/ !>!C,3 | %15
 !>!F,,2 C/=A,/ !>!F,3 | !>!B,,2 B,/E,/ !>!B,,,2 B,/B,,/ | !>!E,,2 G,/B,,/ !^![E,,,E,,]3 || %18
[K:Bb] [B,,,B,,] x2 x3 | %19
 !arpeggio![G,,D,][I:staff -1]!arpeggio![B,DG][I:staff +1]!arpeggio![G,,D,] x3 | %20
 !>!B,,2 !>!F,, !>!C,2 !>!F,, | B,,,/B,,/ z B,,/F,/ z B,,/F,/ z | x x2 x3 | %23
 [D,,D,][I:staff -1]!arpeggio![A,DF][I:staff +1][D,A,] z C,2 | F,,3 F,, G,,A,, | %25
 [D,,A,,][I:staff -1]!arpeggio![F,A,D][I:staff +1] !^![D,,,D,,] z !>!B,,2 | %26
 E,, !>!B,,2 E,, !>!B,,2 |!<(! E,,3!<)! !^![E,,,E,,] !>!C,2 | F,, !>!C,2 F,, !>!C,2 | %29
 F,,3 !^![F,,,F,,] !>!_A,2 | G, !>!_A,2 G, !>!A,2 | [G,,G,]2 z !arpeggio![G,DG]2 z || %32
[K:Eb]"^a Tempo" !>!E,,2 F,/B,,/ !>!E,,2 F,/B,,/ | !>!E,,2 G,/B,,/ !>!E,,2 G,/B,,/ | %34
 !>!E,,2 A,/C,/ !>!E,,2 F,/B,,/ | !>!E,,2 G,/B,,/ !>!E,,2 G,/E,/ | !>!C,2 C/G,/ !>!G,,2 B,/G,/ | %37
 !>!C,2 C/=A,/ !>!G,,2 B,/G,/ | !>!F,2 D/B,/ !>!F,,2 C/F,/ | !>!B,,2 D/B,/- B,3 | %40
 !>!E,,2 F,/B,,/ !>!E,,2 F,/B,,/ | !>!E,,2 G,/B,,/ !>!E,,2 G,/B,,/ | %42
 !>!E,,2 A,/C,/ !>!E,,2 F,/B,,/ | !>!E,,2 G,/B,,/ !>!E,,2 G,/E,/ | !>!C,2 C/G,/ !>!C,3 | %45
 !>!F,,2 C/=A,/ !fermata!F,3 | !>!B,,2 B,/E,/ !>!B,,,2 B,/B,,/ | !>!E,,2 G,/B,,/ !^![E,,,E,,]3 |] %48
V:4
 x6 | x6 | x6 | x6 | x6 | x6 | x6 | x6 | x6 | x6 | x6 | x6 | x6 | x6 | x6 | x6 | x6 | x6 || %18
[K:Bb] x6 | x6 | B,,/F,/ z x C,/F,/ z x | x6 | x6 | x6 | x6 | x6 | x6 | x6 | x6 | x6 | x6 | x6 || %32
[K:Eb] x6 | x6 | x6 | x6 | x6 | x6 | x6 | x6 | x6 | x6 | x6 | x6 | x6 | x6 | x6 | x6 |] %48

